X:1
T:The water doctor
T:The water doctor
T:anon. (c. 1787)
T:www.sangerforum.no
C:anon. (c. 1787)
Z:www.sangerforum.no
%%score [ 1 2 3 ]
L:1/8
Q:1/4=60
M:4/4
K:F
V:1 treble nm="I"
V:2 treble nm="II"
V:3 treble nm="III"
V:1
|: c | A F G c B2 A A | B c d B G2 c2 | f d B d c2 A f | e (c/d/) e d c2 z2 | z4 z2 d2 | z4 z2 c2 | %7
w: O|great and lear- ned doc- tor, to|you from far I'm come, to|bring my daugh- ter's wa- ter. A-|las, poor _ girl, she's dumb,|dumb,|dumb,|
 (e4 f3) B | A2 G2 F3 :| %9
w: dumb, _ a-|las she's dumb.|
V:2
|: F | F2 C C F2 z F | F c B d F E2 ((F/E/)) | D F D B, F3 d | c (E/F/) G G C2 z C | F2 z2 z2 z D | %6
w: Oh|ho, is she so? I'll|soon pre- scribe a charm. _ The _|girl must have a prick, a|prick, sir, _ in the arm, a|prick, a|
 G2 z2 z2 z A | B G c B A3 G | F2 E2 F3 :| %9
w: prick, the|girl must have a prick, sir,|in the arm.|
V:3
|: A | c A G E F F z _E | D F B, B, C3 (A/G/) | F B B B (A2 F) =B, | C (G/A/) G =B c2 z2 | %5
w: I|hum- bly thank your ho- nour, she'll|not dis- like the plan. Oh _|what should we have done _ with-|out a _ cun- ning man,|
 z _E C A, B,2 z2 | z F D =B, C2 z F | C C E C D F D B, | C2 C2 F3 :| %9
w: with- out a cun,|with- out a cun, Oh|what should we have done with- out a|cun- ning man.|

